X:16012
T:Plane Tree, The
T:Mominette; Schottische a Bethanie
R:Jig
C:U Hornby after J-F Heintzen
O:France
Z:Paul Hardy's Session Tunebook 2015 (see www.paulhardy.net). Creative Commons cc by-nc-sa licenced.
M:6/8
L:1/8
Q:3/8=100
K:G
|"Em"EGB EGB|"Am" cBA "Em" B2 B|"Am" cde "Bm" dcB|"Am" AGA "Em" B3|
"Em" EGB EGB|"Am" cBA "Em" B2 B|"Am" cde "Bm" dcB|"Am" AGF "Em" E3:|
|:"Em"efg "D"f2e|"G"ded BAB|"Am"cde "Bm" dcB|"Am"AGA "Em"B3|
"Em"efg "D"f2e|"G"ded BAB|"Am"cde "Bm"dcB|"Am" AGF "Em"E3:|

